resources/icons/16px/truck.svg

<?xml version="1.0" encoding="UTF-8"?>
<svg viewBox="0 0 16 16" version="1.1" xmlns="http://www.w3.org/2000/svg" xmlns:xlink="http://www.w3.org/1999/xlink">
    <title>Truck</title>
    <g stroke="none" stroke-width="1" fill="none" fill-rule="evenodd">
        <path d="M12.5,0 C12.7761424,-5.07265313e-17 13,0.223857625 13,0.5 L13,9 C13.5522847,9 14,9.44771525 14,10 L14,12 L14.5,12 C14.7761424,12 15,12.2238576 15,12.5 L15,13.5 C15,13.7761424 14.7761424,14 14.5,14 L13,14 L13,15 C13,15.5522847 12.5522847,16 12,16 C11.4477153,16 11,15.5522847 11,15 L11,14 L5,14 L5,15 C5,15.5522847 4.55228475,16 4,16 C3.44771525,16 3,15.5522847 3,15 L3,14 L1.5,14 C1.22385763,14 1,13.7761424 1,13.5 L1,12.5 C1,12.2238576 1.22385763,12 1.5,12 L2,12 L2,10 C2,9.44771525 2.44771525,9 3,9 L3,0.5 C3,0.223857625 3.22385763,5.07265313e-17 3.5,0 C3.77614237,-5.07265313e-17 4,0.223857625 4,0.5 L4,3 C4,1.8954305 4.8954305,1 6,1 L10,1 C11.1045695,1 12,1.8954305 12,3 L12,0.5 C12,0.223857625 12.2238576,5.07265313e-17 12.5,0 Z M9,8 L7,8 C6.44771525,8 6,8.44771525 6,9 L6,9 L6,11 C6,11.5522847 6.44771525,12 7,12 L7,12 L9,12 C9.55228475,12 10,11.5522847 10,11 L10,11 L10,9 C10,8.44771525 9.55228475,8 9,8 L9,8 Z M12.5,11 L11.5,11 C11.2238576,11 11,11.2238576 11,11.5 C11,11.7761424 11.2238576,12 11.5,12 L11.5,12 L12.5,12 C12.7761424,12 13,11.7761424 13,11.5 C13,11.2238576 12.7761424,11 12.5,11 L12.5,11 Z M4.5,11 L3.5,11 C3.22385763,11 3,11.2238576 3,11.5 C3,11.7761424 3.22385763,12 3.5,12 L3.5,12 L4.5,12 C4.77614237,12 5,11.7761424 5,11.5 C5,11.2238576 4.77614237,11 4.5,11 L4.5,11 Z M9,9 C9.27614237,9 9.5,9.22385763 9.5,9.5 L9.5,9.5 L9.5,10.5 L9.49194433,10.5898756 C9.44960837,10.8231248 9.24545989,11 9,11 L9,11 L7,11 L6.91012437,10.9919443 C6.67687516,10.9496084 6.5,10.7454599 6.5,10.5 L6.5,10.5 L6.5,9.5 L6.50805567,9.41012437 C6.55039163,9.17687516 6.75454011,9 7,9 L7,9 Z M11,4 L5,4 L5,6 L11,6 L11,4 Z" id="Combined-Shape" fill="#000000"></path>
    </g>
</svg>

<svg xmlns="http://www.w3.org/2000/svg" viewBox="0 0 16 16">
  <path d="M12.5 0a.5.5 0 0 1 .5.5V9a1 1 0 0 1 1 1v2h.5a.5.5 0 0 1 .5.5v1a.5.5 0 0 1-.5.5H13v1a1 1 0 0 1-2 0v-1H5v1a1 1 0 0 1-2 0v-1H1.5a.5.5 0 0 1-.5-.5v-1a.5.5 0 0 1 .5-.5H2v-2a1 1 0 0 1 1-1V.5a.5.5 0 0 1 1 0V3a2 2 0 0 1 2-2h4a2 2 0 0 1 2 2V.5a.5.5 0 0 1 .5-.5M9 8H7a1 1 0 0 0-1 1v2a1 1 0 0 0 1 1h2a1 1 0 0 0 1-1V9a1 1 0 0 0-1-1m3.5 3h-1a.5.5 0 1 0 0 1h1a.5.5 0 1 0 0-1m-8 0h-1a.5.5 0 1 0 0 1h1a.5.5 0 1 0 0-1M9 9a.5.5 0 0 1 .5.5v1l-.008.09A.5.5 0 0 1 9 11H7l-.09-.008a.5.5 0 0 1-.41-.492v-1l.008-.09A.5.5 0 0 1 7 9Zm2-5H5v2h6z"/>
</svg>
